X: 1320
T: An Old Woman Would
R: reel
M: 4/4
K: Amajor
ceee efec|efec B2AB|ceee efec|efec A3B|
ceee efec|efec B2AB|ceee efec|efec AzA2-|
ABce efec|efec B2AB|ceee efec|efec A2A2|
ABce efec|efec B2AB|ceee efec|efec A3e||
|:a2fe dfeA|d2fe dfea-|a2fe dfeA|dfec A3e|
a2fe dfeA|d2fe dfea-|a2fe dfeA|1 dfec A3e:|2 dfec A3B||

